X:1
T:Title
%%score { ( 1 3 ) | ( 2 4 ) }
L:1/8
M:4/4
K:Ab
V:1 treble nm="Grand Piano"
V:3 treble 
V:2 bass 
V:4 bass 
V:1
 z4 z2[Q:1/4=100] [CA][DB] | [Ec][Ec][Ec][Ec] [Fd][Ec][DB][CA] | [FA]4 F2 FF | %3
 [CE][CA][CA][CA] cccc | B6[K:bass][K:treble] z2 | [Ec][Ec][Ec][Ec] [Fd][Ec][DB][CA] | %6
 [FA]4 [DF]2 [Fd][Fd] | c2 B2 AGFG |[M:3/4] [A,CA]6 |[M:1/4] cd |[M:4/4] [ce]4 [Ac]2 z2 | %11
 [FA]4 [DF]2 z2 | [CE][CA][CA][CA] cccc | B6 z2 | [ce]4 [Ac]2 z2 | [DF]4 [FA]2 z2 | EEEE EEFG | %17
[M:3/4] [CA]6 |] %18
V:2
 z4 z2 [A,,A,][A,,A,] | [A,,A,][A,,A,][A,,A,][A,,A,] [A,,A,][A,,A,][A,,A,][A,,A,] | %2
 [D,A,]4 [D,A,D]2 [D,A,D][D,A,D] | [A,,A,][A,,A,][A,,A,][A,,A,] [A,E][A,E][A,E][A,E] | %4
 [G,E]6 [C,A,][B,,G,] | [A,,A,][A,,A,][A,,A,][A,,A,] [A,,A,][A,,A,][A,,A,][A,,A,] | %6
 [D,A,]4 [D,A,]2 [D,A,][D,A,] | [E,G,E]2 [E,G,E]2 [E,CE][E,B,D][E,B,D][E,B,D] |[M:3/4] A,,6 | %9
[M:1/4][K:treble] AB |[M:4/4][K:bass] [A,,A,]A,,A,,A,, [A,,A,]A,,[K:treble]AG | %11
 D,D,D,D, D,D,[D,A,D][D,A,D] | [A,,A,][A,,A,][A,,A,][A,,A,] [A,E][A,E][A,E][A,E] | %13
 [E,G,E]2 [B,,F,][B,,A,] [E,G,]2[K:treble] AB | [A,,A,]A,,A,,A,, [A,,A,]A,,CE | %15
 D,D,D,D, D,D,[D,A,D][D,A,D] | [E,A,C][E,A,C][E,G,B,][E,G,B,] [E,A,C][E,A,C][E,B,D][E,B,D] | %17
[M:3/4] [A,,A,]6 |] %18
V:3
 x8 | x8 | x8 | x8 | z2[K:bass] E,E, E,D,[K:treble][EA][EB] | x8 | x8 | x8 |[M:3/4] x6 | %9
[M:1/4] x2 |[M:4/4] z A,A,A, z A,cB | A,A,A,A, A,A,FF | x8 | z2 =DF E2 cd | z A,A,A, z A,AG | %15
 A,A,A,A, A,A,FF | x8 |[M:3/4] x6 |] %18
V:4
 x8 | x8 | x8 | x8 | E,2 z2 z4 | x8 | x8 | x8 |[M:3/4] x6 |[M:1/4][K:treble] x2 | %10
[M:4/4][K:bass] x6[K:treble] x2 | x8 | x8 | x6[K:treble] x2 | x8 | x8 | x8 |[M:3/4] x6 |] %18

